img/facebook.svg

<svg id="Capa_1" enable-background="new 0 0 512 512" height="512" viewBox="0 0 512 512" width="512" xmlns="http://www.w3.org/2000/svg"><path d="m512 256c0-141.4-114.6-256-256-256s-256 114.6-256 256 114.6 256 256 256c1.5 0 3 0 4.5-.1v-199.2h-55v-64.1h55v-47.2c0-54.7 33.4-84.5 82.2-84.5 23.4 0 43.5 1.7 49.3 2.5v57.2h-33.6c-26.5 0-31.7 12.6-31.7 31.1v40.8h63.5l-8.3 64.1h-55.2v189.5c107-30.7 185.3-129.2 185.3-246.1z"/></svg>

<?xml version="1.0" encoding="UTF-8"?>
<svg width="512px" height="512px" viewBox="0 0 512 512" version="1.1" xmlns="http://www.w3.org/2000/svg" xmlns:xlink="http://www.w3.org/1999/xlink">
    <title>facebook</title>
    <g id="Page-1" stroke="none" stroke-width="1" fill="none" fill-rule="evenodd">
        <g id="Desktop-HD" transform="translate(-862.000000, -105.000000)" fill="#FFFFFF" fill-rule="nonzero">
            <g id="facebook" transform="translate(862.000000, 105.000000)">
                <path d="M512,256 C512,114.6 397.4,0 256,0 C114.6,0 0,114.6 0,256 C0,397.4 114.6,512 256,512 C257.5,512 259,512 260.5,511.9 L260.5,312.7 L205.5,312.7 L205.5,248.6 L260.5,248.6 L260.5,201.4 C260.5,146.7 293.9,116.9 342.7,116.9 C366.1,116.9 386.2,118.6 392,119.4 L392,176.6 L358.4,176.6 C331.9,176.6 326.7,189.2 326.7,207.7 L326.7,248.5 L390.2,248.5 L381.9,312.6 L326.7,312.6 L326.7,502.1 C433.7,471.4 512,372.9 512,256 Z" id="Path"></path>
            </g>
        </g>
    </g>
</svg>
